X: 74
T:Finnish Polka
M:2/4
L:1/8
R:Polka
K:D
|: F|B>c B>c|dB Bd|cA Ac|d/2c/2B/2A/2 BF|
B>c B>c|dB Bd|e2dc|1BA Bz:|2Bc de|
|:f2df|ec cd|d/2e/2f/2e/2 dc|Bc de|
f2df|ec cd|(3efe dc|1BA Be:|2BA Bz|
